X:1
T:042 - Realização
T:Letra: Ethelbert William Bullinger (1837-1913)
T:Trad.: Joseph Jones (1848-1927)
T:Música: James McGranahan (1840-1907)
M:4/4
L:1/4
Q:1/4=100
K:Fmaj
V:1
(C/F/) | "F"AAA (F/A/) | ccc (c/A/) | "C"G>GG (F/G/) | "F"A3 (C/F/) | AAA (F/A/) | ccc (c/A/) | "C/G"G>c "G7"(c/=B/) (A/B/) | "C"c2- "C7"c || c | "F"c>c (c/A/) "Bb"(d/c/) | "F"c>B A (F/G/) | A>G (A/c/) (B/A/) | "C"G3 "C7"c | "F"F>F A>c | (c/A/) (B/c/) "Bb"Hd d | "F/C"(c/A/) "C7"(B/G/) "F/C"F"C7"E | "F"F3 |] 
w: 1.~Je_sus, a-go-ra,_ sim, eu sei, Quão_ gran-deé teu a_mor, Pois_ sal-va-ção em_ ti a-chei! A_cei-tao meu_ lou_vor._       És tu, Je-sus,_ meu_ Sal-va-dor,    Por_ ti eu te_nho_ paz;    Je-sus, a ti lou-vor_ da_rei,    Pois tu_do_ tu me dás.
w: 2.~Ja_mais des-can-so_ co-nhe-ci, I_nú-til sem-pre_ sou; Mas_ Cris-to se lem_brou de mim, De_ gra-ça me_ sal_vou._
w: 3.~Co_mi-go, cren-tes,_ e-xal-tai O_ gran-de Sal-va_dor; Pois_ tu-do Cris-to_ me su-priu, Em_bo-ra pe_ca_dor._
w: 4.~Lou_vor, lou-vor a_ ti da-rei, Ó_ Cris-to, meu Se_nhor; Pro_fe-ta, Sa-cer_do-tee Rei, Do_ mun-doo Sal_va_dor._
W: 
W:
W: 1. Jesus, agora, sim, eu sei,
W: Quão grande é teu amor,
W: Pois salvação em ti achei!
W: Aceita o meu louvor.
W: 
W:    (Estribilho)
W:    És tu, Jesus, meu Salvador,
W:    Por ti eu tenho paz;
W:    Jesus, a ti louvor darei,
W:    Pois tudo tu me dás.
W:         
W: 2. Jamais descanso conheci,
W: Inútil sempre sou;
W: Mas Cristo se lembrou de mim,
W: De graça me salvou.
W: 
W:
W:
W: 3. Comigo, crentes, exaltai
W: O grande Salvador;
W: Pois tudo Cristo me supriu,
W: Embora pecador.
W: 
W: 4. Louvor, louvor a ti darei,
W: Ó Cristo, meu Senhor;
W: Profeta, Sacerdote e Rei,
W: Do mundo o Salvador.
W: 
W: 





